src/icons/youtube.svg

<svg width="29" height="23" viewBox="0 0 29 23" fill="none" xmlns="http://www.w3.org/2000/svg">
<path d="M18.5919 10.8872L13.3555 7.39632C13.2569 7.33139 13.1426 7.29433 13.0247 7.28908C12.9067 7.28382 12.7895 7.31056 12.6856 7.36647C12.5816 7.42237 12.4947 7.50536 12.434 7.60664C12.3733 7.70792 12.3412 7.82372 12.341 7.94177V14.9236C12.3411 15.0426 12.3737 15.1593 12.4352 15.2612C12.4967 15.3631 12.5848 15.4462 12.6901 15.5018C12.7934 15.5576 12.9101 15.584 13.0273 15.5782C13.1446 15.5724 13.2581 15.5347 13.3555 15.469L18.5919 11.9781C18.6819 11.9184 18.7557 11.8374 18.8068 11.7422C18.8579 11.647 18.8846 11.5407 18.8846 11.4327C18.8846 11.3247 18.8579 11.2183 18.8068 11.1232C18.7557 11.028 18.6819 10.9469 18.5919 10.8872ZM13.6501 13.7018V9.16359L17.0537 11.4327L13.6501 13.7018ZM26.1301 5.13814C26.0351 4.76995 25.8541 4.42959 25.6018 4.14509C25.3496 3.86059 25.0333 3.6401 24.6791 3.50177C20.9592 2.07268 14.9919 2.0945 14.741 2.0945C14.4901 2.0945 8.52279 2.07268 4.80279 3.50177C4.44861 3.6401 4.13237 3.86059 3.88011 4.14509C3.62786 4.42959 3.44681 4.76995 3.35188 5.13814C3.06824 6.20723 2.74097 8.17087 2.74097 11.4327C2.74097 14.6945 3.06824 16.6581 3.35188 17.7272C3.44681 18.0954 3.62786 18.4358 3.88011 18.7203C4.13237 19.0048 4.44861 19.2253 4.80279 19.3636C8.52279 20.7927 14.4901 20.7709 14.741 20.7709H14.8173C15.5701 20.7709 21.1337 20.7272 24.6791 19.3636C25.0333 19.2253 25.3496 19.0048 25.6018 18.7203C25.8541 18.4358 26.0351 18.0954 26.1301 17.7272C26.4137 16.6581 26.741 14.6945 26.741 11.4327C26.741 8.17087 26.4137 6.20723 26.1301 5.13814ZM24.8646 17.4C24.8217 17.5664 24.74 17.7204 24.6263 17.8493C24.5125 17.9782 24.3699 18.0785 24.2101 18.1418C20.7191 19.4836 14.8064 19.4618 14.741 19.4618C14.6755 19.4618 8.76278 19.4836 5.27188 18.1418C5.11204 18.0785 4.96943 17.9782 4.85568 17.8493C4.74193 17.7204 4.66026 17.5664 4.61733 17.4C4.35551 16.3963 4.05006 14.5527 4.05006 11.4327C4.05006 8.31268 4.35551 6.46905 4.61733 5.46541C4.66026 5.29893 4.74193 5.14495 4.85568 5.01604C4.96943 4.88712 5.11204 4.78692 5.27188 4.72359C8.76278 3.38177 14.6755 3.40359 14.741 3.40359C14.8064 3.40359 20.7191 3.38177 24.2101 4.72359C24.3699 4.78692 24.5125 4.88712 24.6263 5.01604C24.74 5.14495 24.8217 5.29893 24.8646 5.46541C25.1264 6.46905 25.4319 8.31268 25.4319 11.4327C25.4319 14.5527 25.1264 16.3963 24.8646 17.4Z" fill="#231F20"/>
</svg>

<svg width="29" height="23" viewBox="0 0 29 23" fill="none" xmlns="http://www.w3.org/2000/svg"><path d="m18.6 10.89-5.24-3.5a.65.65 0 0 0-1.02.55v6.98a.65.65 0 0 0 1.02.55l5.23-3.5a.65.65 0 0 0 0-1.08Zm-4.95 2.81V9.16l3.4 2.27-3.4 2.27Zm12.48-8.56a2.4 2.4 0 0 0-1.45-1.64c-3.72-1.43-9.69-1.4-9.94-1.4S8.52 2.06 4.8 3.5a2.4 2.4 0 0 0-1.45 1.64 25.32 25.32 0 0 0-.6 6.3c0 3.25.32 5.22.6 6.29a2.4 2.4 0 0 0 1.45 1.63c3.72 1.43 9.69 1.41 9.94 1.41h.08c.75 0 6.31-.04 9.86-1.4a2.4 2.4 0 0 0 1.45-1.64c.28-1.07.61-3.04.61-6.3s-.33-5.22-.61-6.3ZM24.86 17.4a1.1 1.1 0 0 1-.65.74c-3.5 1.34-9.4 1.32-9.47 1.32-.06 0-5.98.02-9.47-1.32a1.1 1.1 0 0 1-.65-.74c-.26-1-.57-2.85-.57-5.97 0-3.12.3-4.96.57-5.96a1.1 1.1 0 0 1 .65-.75c3.5-1.34 9.4-1.32 9.47-1.32.07 0 5.98-.02 9.47 1.32a1.1 1.1 0 0 1 .65.75c.27 1 .57 2.84.57 5.96s-.3 4.97-.57 5.97Z" fill="#231F20"/></svg>
